!!!COM:	Bach, Johann Sebastian
!!!CDT:	1685/02/21/-1750/07/28/
!!!OTL@@DE:	Gott hat das Evangelium
!!!SCT:	BWV 319
!!!PC#:	181
!!!AGN:	chorale
**kern	**kern	**kern	**kern
*ICvox	*ICvox	*ICvox	*ICvox
*Ibass	*Itenor	*Ialto	*Isoprn
*I"Bass	*I"Tenor	*I"Alto	*I"Soprano
*clefF4	*clefGv2	*clefG2	*clefG2
*k[f#]	*k[f#]	*k[f#]	*k[f#]
*e:	*e:	*e:	*e:
*M4/4	*M4/4	*M4/4	*M4/4
*met(c)	*met(c)	*met(c)	*met(c)
*MM100	*MM100	*MM100	*MM100
4E	4e	4g	4b
=1	=1	=1	=1
4D#	4B	4f#	4b
4E	4e	4g	8bL
.	.	.	8ccJ
4F#	4d	4.a	8ddL
.	.	.	8ccJ
4G	4d	.	4b
.	.	[8g	.
=2	=2	=2	=2
4C	4e	8gL]	4a
.	.	16f#L	.
.	.	16eJJ	.
4D	8dL	4f#	8bL
.	8cJ	.	8aJ
4GG;	4B;	4d;	4g;
4G	8dL	4g	4b
.	8eJ	.	.
=3	=3	=3	=3
4D#	4f#	4a	4b
4E	4e	4g	8bL
.	.	.	8ccJ
4BB	4d	4f#	8ddL
.	.	.	8ccJ
8EL	4e	[4g	4b
8DnXJ	.	.	.
=4	=4	=4	=4
4C#	4e	4g]	4a
4D#	4B	4f#	4b
4E;	4B;	4e;	4g;
[4E	[4e	[4g	4b
=5	=5	=5	=5
8EL]	8eL]	8gL]	4cc
8F#J	8dJ	[8aJ	.
4G	4d	8aL]	4b
.	.	[8gJ	.
8C#L	8eL	8gL]	4a
8D#J	8BJ	8f#J	.
8EL	4B	[4e	8gL
8F#J	.	.	8aJ
=6	=6	=6	=6
8GL	4.B	8eL]	4b
8AJ	.	16d#L	.
.	.	16c#JJ	.
8BL	.	4d#	4f#
8BBJ	8A	.	.
4CnX;	4G;	4e;	4e;
4BB	4dnX	4g#	4b
=7	=7	=7	=7
4AA	8eL	4a	4cc
.	8f#J	.	.
8BBL	4g	8dnXL	4b
8CJ	.	8eJ	.
4D	8dL	4f#	4a
.	8cJ	.	.
4E	[4B	4e	8gL
.	.	.	8aJ
=8	=8	=8	=8
8GGL	4.B]	4e	4b
8AAJ	.	.	.
4BB	.	4d#	4f#
.	8A	.	.
4EE;	4G;	4e;	4e;
4E	4e	4g	4b
=9	=9	=9	=9
8D#L	4B	8f#L	4b
8C#	.	8eJ	.
8D#	4F#	8f#L	4a
8BBJ	.	8d#J	.
[2E	8EL	2B	8gL
.	8F#	.	8f#
.	8G	.	8e
.	8AJ	.	8f#J
=10	=10	=10	=10
8EL]	4B	4e	4g
8F#	.	.	.
8G	4B	4e	4g
8EJ	.	.	.
8CnXL	8cL	8eL	4a
8BBJ	8e	8g	.
4C	8d#	8f#	4a
.	8eJ	8eJ	.
=11	=11	=11	=11
2.BB;	2.d#;	2.f#;	2.b;
==	==	==	==
*-	*-	*-	*-
!!!hum2abc: -Q ''
!!!title: @{PC#}. @{OTL@@DE}
!!!YOR1: 371 vierstimmige Choralges&auml;nge von Johann Sebastian Bach, 
!!!YOR2: 4th ed. by Alfred D&ouml;rffel (Leipzig: Breitkopf und H&auml;rtel, 
!!!YOR2: c.1875). 178 pp. Plate "V.A.10".  reprint: J.S. Bach, 371 Four-Part 
!!!YOR4: Chorales (New York: Associated Music Publishers, Inc., c.1940).
!!!SMS: B&H, 4th ed, Alfred D&ouml;rffel, c.1875, plate V.A.10
!!!EED:  Craig Stuart Sapp
!!!EEV:  2009/05/22
